!!!!SEGMENT: pl-sa--549-a-ix-29--011_anonim--mazur-dabrowskiego.krn
!!!cenid: 18xx:467
!!!COM: Anonim
!!!COM-rismID: pe30004985
!!!CDT:
!!!CNT:
!!!OTL: Mazur Dąbrowskiego
!!!PDT:
!!!AGN: Secular; Mazurka
!!!SMS-siglum: PL-SA
!!!SMS-shelfmark: 549/A IX 29
!!!SMS-shelfwork: 011 W
!!!SMS-variant:
!!!SMS-altvar:
!!!NIFC-rismSourceID: 1001068377
!!!NIFC-rismChildID: 1001068377
!!!NIFC-islandoraID: none
!!!URL-pdf-islandora:
!!!URL-scan: https://bc.bdsandomierz.pl/dlibra/publication/1441/edition/1409/content @EN{Scan in the Sandomierz Diocese Digital Library} @PL{Skany w portalu Cyfrowa Biblioteka Diecezjalna w Sandomierzu}
!!!IIIF:
!!!ONB-nifc: Str. 10 (s. 4-5)
!!!AIN: 2 piano
!!!key: D
**kern	**kern
*group1	*group1
*part2	*part1
*staff2	*staff1
*I"[Piano]	*I"[Piano]
*Ipiano	*Ipiano
*ICklav	*ICklav
*clefF4	*clefG2
*k[f#c#]	*k[f#c#]
*D:	*D:
*M3/8	*M3/8
*>[A,A,B]	*>[A,A,B]
=1	=1
*>A	*>A
!	!LO:TX:a:t=P:problem=przy kluczu [cc# ff#]
8DD/ 8D	16ff#\LL
.	16gg\JJ
8D\L 8F#\ 8A\	8aa\L
8D\J 8F#\ 8A\	8aa\J
=2	=2
*tremolo	*
8D\ 8F#\ 8A\L	32bb\LLL
.	32aa\
.	32gg#X\
.	32aa\JJJ
8D\ 8F#\ 8A\	16bb\LL
.	16aa\
8D\ 8F#\ 8A\J	16ggn\
.	16ff#\JJ
*Xtremolo	*
=3	=3
4.C#\ 4.E\ 4.A\	16ee\LL
.	16ee\JJ
.	8.aa\L
.	16gg\Jk
=4	=4
*tremolo	*
!	!LO:TX:a:t=P:problem=niejednoznaczny zapis - dwudźwięk lub pojedyczny
8D\ 8F# 8A\L	16ff#\LL 16gg
.	16ff#\JJ 16aa
8D\ 8F# 8A\	4ff#\
8D\ 8F# 8A\J	.
=5	=5
*rep	*
8D\ 8F# 8A\L	16ff#\LL
.	16gg\JJ
8D\ 8F# 8A\	8aa\L
8D\ 8F# 8A\J	8aa\J
*Xrep	*
=6	=6
*rep	*
8D\ 8F# 8A\L	32bb\LLL
.	32aa\
.	32gg#X\
.	32aa\JJJ
8D\ 8F# 8A\	16bb\LL
*Xrep	*
*rep	*
.	16aa\
8D\ 8F# 8A\J	16ggn\
.	16aa\JJ
*Xrep	*
=7	=7
8D\ 8F# 8A\L	16ee\LL
.	16ee\JJ
8D\ 8F# 8A\	8.aa\L
8D\ 8F# 8A\J	.
.	16cc#\Jk 16ee
=8	=8
8D\ 8F# 8A\L	16ee\LL
.	16dd\JJ
8D\ 8F# 8A\	4dd\
8D\ 8F# 8A\J	.
*Xtremolo	*
=9:|!|:	=9:|!|:
*>B	*>B
16C#\ 16E\ 16A\	16ee\
16r	16r
4C#\ 4E\ 4A\	8.ee\L
.	16gg\Jk
=10	=10
*tremolo	*
8D\ 8F# 8A\L	16ee\LL 16gg\
.	16dd\JJ 16ff#\
8D\ 8F# 8A\	4dd\ 4ff#\
8D\ 8F# 8A\J	.
*Xtremolo	*
=11	=11
!LO:N:vis=4.	!
16C#\ 16E\ 16A\	8ee\L 8gg\
16r	.
4C#\ 4E\ 4A\	16gg\L
.	16ff#\
.	16gg\
!	!LO:SIC:v:s:t=16aa
.	16gg\JJ
!!LO:LB:g=original
=12	=12
*tremolo	*
8D\ 8F# 8A\L	16bb\LL
.	16aa\JJ
8D\ 8F# 8A\	4aa\
8D\ 8F# 8A\J	.
=13	=13
*rep	*
8D\ 8F# 8A\L	8aa\L
8D\ 8F# 8A\	16ddd\L
.	16ccc#\
8D\ 8F# 8A\J	16bb\
.	16aa#X\JJ
*Xrep	*
=14	=14
!	!LO:SIC:v:s:t=16aa#
8D\ 8G\ 8B\L	16aa\LL
.	16bb\JJ
8D\ 8G\ 8B\	4bb\
8D\ 8G\ 8B\J	.
=15	=15
8AA\ 8E\ 8GL\	16ee\LL
.	16ee\JJ
8AA\ 8E\ 8G\	8.aa\L
8AA\ 8E\ 8GJ\	.
.	16cc#\Jk
*Xtremolo	*
=16	=16
8D\ 8F#\	16ee\LL
.	16dd\JJ
4D\ 4F#\	4dd\
==	==
*-	*-
!!!system-decoration: [{g1}]
!!!ENC: Andrzej Kubiczek
!!!END: 2020-06-16
!!!EED: Jędrzej Mróz
!!!EEV: 2022-01-04
!!!YEC: Copyright 2022 Narodowy Instytut Fryderyka Chopina (https://polishscores.org)
!!!YEM: License CC-BY-4.0 (https://creativecommons.org/licenses/by/4.0)
